!!!!SEGMENT: pl-wn--sd-xvi-qu-273--034_gomolka-mikolaj--jakokolwiek-szczescie-ku-mnie-sie-postawi.krn
!!!cenid: 15xx:239
!!!COM: Gomółka, Mikołaj
!!!COM-rismid: pe30013343
!!!CDT: ~1535->1591/04/30
!!!CNT: Polish
!!!GTL: Melodiae na psalterz polski
!!!OTL: XXXIV. Jakokolwiek szczęście ku mnie się postawi,
!!!ONB: Ps. XXXIIII. Benedicam dominum in omni tempore: semper laus eius in ore meo. In domino laetabitur anima mea,
!!!PDT: 1580
!!!AGN: Sacred
!!!SMS-siglum: PL-Wn
!!!SMS-shelfmark: SD XVI.Qu.273
!!!SMS-shelfwork: 034 G
!!!NIFC-rismid:
!!!ONB-nifc: Melodiae na psalterz polski
**kern	**text	**kern	**text	**kern	**text	**kern	**text
*part4	*part4	*part3	*part3	*part2	*part2	*part1	*part1
*staff4	*staff4	*staff3	*staff3	*staff2	*staff2	*staff1	*staff1
*clefF4	*	*clefC4	*	*clefC3	*	*clefC1	*
*k[b-]	*	*k[b-]	*	*k[b-]	*	*k[b-]	*
*G:	*	*G:	*	*G:	*	*G:	*
*M2/1	*	*M2/1	*	*M2/1	*	*M2/1	*
*met(C|)	*	*met(C|)	*	*met(C|)	*	*met(C|)	*
*I"BASSUS.	*	*I"TENOR.	*	*I"ALTUS.	*	*I"CANTUS.	*
=1-	=1	=1-	=1	=1-	=1	=1-	=1
1GG/	Já-	1G/	Já-	1Bn/	Já-	1d/	Já-
2C/	-ko-	2G/	-ko-	2c/	-ko-	2e/	-ko-
2BB-/	-ko-	4B-\	-ko-	2d\	-ko-	2f/	-ko-
.	.	4A/	.	.	.	.	.
=2-	=2	=2-	=2	=2-	=2	=2-	=2
!LO:SIC:s=2E-:v	!	!	!	!	!	!	!
2E\	-lwiek-	4G/	-lwiek	2d\	-l(wiek)	2.g/	-l(wiek)
.	.	4F/	.	.	.	.	.
!LO:SIC:s=2E-:v	!	!	!	!	!	!	!
2E\	szczę-	2G/	szczę-	2c/	szc(zę-	.	.
.	.	.	.	.	.	4a\	szczę-
2D/	-śćié	2F/	-ść(ié)	2d\	-śćié)	2b-\	-śćié
2D/	ku	2d\	ku	2f\	ku	2a\	ku
=3-	=3	=3-	=3	=3-	=3	=3-	=3
2E\	m(nie)	2c\	m(nie)	2e\	m(nie)	2g/	mnie
2F\	sye	2c\	sye	2a\	sye	4f/	sye
.	.	.	.	.	.	4e/	po-
2.G\	po-	2.B-\	po-	2.g\	po-	2d/	.
.	.	.	.	.	.	4b-\	.
4A\	.	4c\	.	4f\	.	4a\	.
=4-	=4	=4-	=4	=4-	=4	=4-	=4
2B-\	.	2d\	.	4e\	.	4g/	.
.	.	.	.	4d\	.	4f/	.
2B-\	-stá-	2B-\	.	2g\	.	4e/	.
.	.	.	.	.	.	4d/	.
1A\	.	4c\	.	2.a\	-stá-	4e/	.
.	.	2d\	-stá-	.	.	4f/	.
.	.	.	.	.	.	2e/	-stá-
.	.	4c\	.	4g\	.	.	.
=5-	=5	=5-	=5	=5-	=5	=5-	=5
!!LO:PB:g=original
2D\	-wi,	2d\	-wi,	2f#X\	-wi,	2d/	-wi,
2D\	Bą(dź)	2d\	Bą(dź)	2fny\	Bą(dź)	2a\	Bą(dź)
2B-\	rá-	2d\	ra-	2f\	rá-	2b-\	rá-
2G\	-do-	2B-\	-do-	2g\	-do-	2b-\	-do-
=6-	=6	=6-	=6	=6-	=6	=6-	=6
2A\	-(ści)	2c\	-(ści)	2e\	-ś(ci)	2a\	-(ści)
2F\	bą(dź)	2A/	bą(dź)	2f\	bą(dź)	2cc\	bą(dź)
2G\	mię	4B-\	mię	4d\	mię	2b-\	mię
.	.	4c\	.	4e\	.	.	.
2D/	frá-	2d\	frá-	2f\	frá-	4a\	frá-
.	.	.	.	.	.	4b-\	-sun-
=7-	=7	=7-	=7	=7-	=7	=7-	=7
!LO:SIC:s=2E-:v	!	!	!	!	!	!	!
2E\	-sun-	2B-\	-sun-	2e-X\	-sun-	4a\	-ku
.	.	.	.	.	.	4g\	.
2C/	-ku	4c\	-ku	2e-\	-ku	2g/	ná-
.	.	4B-\	.	.	.	.	.
1D\	ná_b(á-	4A\	ná-	2.d\	ná-	2g/	-bá-
.	.	4G/	.	.	.	.	.
.	.	2A/	-bá-	.	.	2f/	-wi:
.	.	.	.	4c/	-bá-	.	.
=8-	=8	=8-	=8	=8-	=8	=8-	=8
1GG/	-wi):	1G/	-wi:	1Bn/	-wi:	1g\	.
1B-\	Pá-	1d\	Pá-	1f\	Pá-	1b-\	Pá-
=9-	=9	=9-	=9	=9-	=9	=9-	=9
!LO:SIC:s=2.E-:v	!	!	!	!	!	!	!
2.E\	-nu	2.e-X\	-nu	2.g\	-nu	2.b-\	-nu
!LO:SIC:s=4E-:v	!	!	!	!	!	!	!
4E\	ia	4e-\	ia	4g\	ia	4b-\	ia
2BB-/	dźię-	2d\	dźię-	2f\	dźię-	2b-\	dźię-
2BB-/	-ko-	2d\	-ko-	2f\	-ko-	2b-\	-ko-
=10-	=10	=10-	=10	=10-	=10	=10-	=10
2F\	-wáć	2c\	-wáć	2f\	-wáć	2a\	-wáć
2D/	bę-	2f\	bę-	2A/	bę-	2a\	bę-
2AA/	-dę	2eny\	-dę	2c\	-dę	2a\	-dę
2BB-/	ze	2d\	ze	2B-y/	ze	4f/	ze
.	.	.	.	.	.	4g/	.
=11-	=11	=11-	=11	=11-	=11	=11-	=11
!!LO:PB:g=original
2AA/	wszyt-	2e\	wszyt-	2.c/	wszyt-	2.a\	wszyt-
2AA/	-kié-	2e\	-kié-	.	.	.	.
.	.	.	.	4B-/	-kié-	4g/	-kié-
2D/	-go,	2d\	-go,	2A/	-go,	2f#X/	-go,
1G\	W u-	1d\	W u-	1B-/	W u-	1g\	W u-
=12-	=12	=12-	=12	=12-	=12	=12-	=12
.	.	.	.	.	.	.	.
2C/	-śćiéch:	2e\	-ś(ćiéch)	2c/	-(śćiéch)	2g/	-śc(iéch)
2F\	mo-	2c\	mo-	2A/	mo-	2a\	mo-
2D/	-ich	2d\	-(ich)	2f\	-ich	2a\	-ich
=13-	=13	=13-	=13	=13-	=13	=13-	=13
4BB-/	u-	1f\	u-	1b-\	u-	1dd\	u-
4C/	.	.	.	.	.	.	.
4D/	-stać	.	.	.	.	.	.
4E\	.	.	.	.	.	.	.
2F\	nié-	2f\	-stać	2.a\	-stać	2.cc\	-stać
2C/	.	2e\	nié-	.	.	.	.
.	.	.	.	4g\	nié-	4b-\	.
=14-	=14	=14-	=14	=14-	=14	=14-	=14
2D/	-ma	2d\	-ma	2f\	ma	2a\	nié-
2AA/	chwa-	2c\	chwa-	2eny\	.	2a\	-ma
2BB-/	.	2B-\	.	2d\	chwa-	2fny/	chwa-
2GG/	-łá	2B-\	-łá	1d\	-łá	2g/	.
=15-	=15	=15-	=15	=15-	=15	=15-	=15
1AA/	ie-	1A\	ie-	.	.	2e/	-łá
.	.	.	.	2c#X/	ie-	4a\	ie-
.	.	.	.	.	.	4g/	.
1D\	-go.	1A\	.	1d\	-go.	4f#X/	.
.	.	.	.	.	.	4e/	.
.	.	.	.	.	.	2f#/	-go.
=16-	=16	=16-	=16	=16-	=16	=16-	=16
*00/left	*	*	*	*	*	*	*
00GG/	.	00B\	-go.	00d\	.	00g\	.
==	==	==	==	==	==	==	==
*-	*-	*-	*-	*-	*-	*-	*-
!!!RDF**kern: l = terminal long
!!!system-decoration: s1,s2,s3,s4
!!!ENC: Marta Lawrence
!!!END: 2020-02-07
!!!URL-scan: https://polona.pl/item/melodiae-na-psalterz-polski,Nzk3MTM4ODQ/89 Scan on Polona
!!!IIIF: https://polona.pl/iiif/item/Nzk3MTM4ODQ/manifest.json
